X:1
T:Title
%%score 1 { 2 | 3 }
L:1/8
M:6/4
K:Eb
V:1 treble nm="Grand Piano, Staff"
V:2 bass nm="Choir Pad, Staff-1"
V:3 bass 
V:1
 [EB]2 [E=A]2 [EB]2 [Dc]6 | [DF]2 [DA]2 [B,D]2 [B,E]6 | [GB]2 [_G=A]2 [=GB]2 [_Ad]6 | %3
w: By~Wenzel~Mueller * * *|||
 [Ac]2 [GB]2 [FA]2 [EG]6 | [GB]2 [_G=A]2 [=GB]2 [_Ad]6 | [AB]2 [Ac]2 [Ad]2 [Ge]6 | %6
w: |||
 [EG]2 [DF]2 [_DG]2 [Cc]6 | [EB]2 [EA]2 [B,D]2 [B,E]6- | [B,E]6 z6 |] %9
w: |||
V:2
 G,2 _G,2 =G,2 A,6 | A,2 F,2 A,2 G,6 | B,2 C2 B,2 B,6 | B,2 B,2 B,2 B,6 | B,2 C2 B,2 B,6 | %5
 D2 D2 D2 C6 | G,2[K:bass] G,2 E,2 E,6 | B,2 C2 A,2 G,6- | G,6 z6 |] %9
V:3
 E,2 E,2 E,2 B,,6 | B,,2 B,,2 B,,2 E,6 | E,2 E,2 E,2 B,,6 | B,,2 C,2 D,2 E,6 | E,2 E,2 E,2 B,,6 | %5
 B,,2 B,,2 =B,,2 C,6 | C,2 C,2 B,,2 A,,6 | G,,2 F,,2 B,,2 E,6- | E,6 z6 |] %9

